assets/github-icon.svg

<svg width="35" height="35" viewBox="0 0 35 35" fill="none" xmlns="http://www.w3.org/2000/svg">
<path d="M21.28 28H18.48H15.68C15.68 28 15.68 26.32 15.68 25.2C11.83 26.04 10.78 23.1 10.78 23.1C10.08 21.7 9.38003 21 9.38003 21C7.98003 20.16 9.38003 20.3 9.38003 20.3C10.78 20.3 11.48 21.7 11.48 21.7C12.74 23.8 14.91 23.45 15.68 23.1C15.68 22.4 15.96 21.35 16.38 21C13.3 20.65 10.78 18.9 10.78 15.4C10.78 11.9 11.48 11.2 12.18 10.5C12.04 10.15 11.48 8.89 12.18 7C12.18 7 13.58 7 14.98 9.1C15.68 8.4 17.78 8.4 18.48 8.4C19.18 8.4 21.28 8.4 21.98 9.1C23.38 7 24.78 7 24.78 7C25.55 8.89 24.92 10.15 24.78 10.5C25.48 11.2 26.18 11.9 26.18 15.4C26.18 18.9 23.66 20.65 20.58 21C21 21.35 21.28 22.54 21.28 23.1V28Z" fill="white"/>
<path d="M17.5002 0.699219C8.1902 0.699219 0.700195 8.18922 0.700195 17.4992C0.700195 26.8092 8.1902 34.2992 17.5002 34.2992C26.8102 34.2992 34.3002 26.8092 34.3002 17.4992C34.3002 8.18922 26.8102 0.699219 17.5002 0.699219ZM17.5002 30.7992C10.1502 30.7992 4.2002 24.8492 4.2002 17.4992C4.2002 10.1492 10.1502 4.19922 17.5002 4.19922C24.8502 4.19922 30.8002 10.1492 30.8002 17.4992C30.8002 24.8492 24.8502 30.7992 17.5002 30.7992Z" fill="white"/>
</svg>

<svg xmlns="http://www.w3.org/2000/svg" width="35" height="35" fill="#fff" xmlns:v="https://vecta.io/nano"><path d="M21.28 28h-2.8-2.8v-2.8c-3.85.84-4.9-2.1-4.9-2.1-.7-1.4-1.4-2.1-1.4-2.1-1.4-.84 0-.7 0-.7 1.4 0 2.1 1.4 2.1 1.4 1.26 2.1 3.43 1.75 4.2 1.4 0-.7.28-1.75.7-2.1-3.08-.35-5.6-2.1-5.6-5.6s.7-4.2 1.4-4.9c-.14-.35-.7-1.61 0-3.5 0 0 1.4 0 2.8 2.1.7-.7 2.8-.7 3.5-.7s2.8 0 3.5.7c1.4-2.1 2.8-2.1 2.8-2.1.77 1.89.14 3.15 0 3.5.7.7 1.4 1.4 1.4 4.9s-2.52 5.25-5.6 5.6c.42.35.7 1.54.7 2.1V28zM17.5.699a16.76 16.76 0 0 0-16.8 16.8 16.76 16.76 0 0 0 16.8 16.8 16.76 16.76 0 0 0 16.8-16.8A16.76 16.76 0 0 0 17.5.699zm0 30.1c-7.35 0-13.3-5.95-13.3-13.3s5.95-13.3 13.3-13.3 13.3 5.95 13.3 13.3-5.95 13.3-13.3 13.3z"/></svg>
